X:348
T:
R:polska
S:Efter »Florsen» i Burs;
N:säges vara diktad av Godman Grodda i Fleringe. % rättelse i originalboken
O:Gotland, Burs
M:3/4
L:1/16
K:F
cdcB A2f2 c2a2|a2gf gfed c4|{B} d2dc B2BA G2GF|
E2EF D2DE C4|cdcB A2f2 c2a2|a2gf gfed c4|{B} d2dc B2BA G3B| % infört rättelse från originalet
AGFE E4 F4::cdcB A2B2 G2B2|A2c2 G2B2 A2c2|fgfe d2f2 e2f2|d2f2 e2g2 c4|
cdcB A2f2 c2a2|a2gf gfed c4|{B} d2dc B2BA G3B|AGFE [C4E4] F4::
f3a a2f2 f2ga|a3b b2g2 g2fg|f3a a2f2 f2a2|gagf efed c4|f3a a2f2 f2ga|
a3b b2g2 g2fg|f3a a2f2 f2a2|gbeg g4 f4:|

